X:768
%%etbk:tnset id:501,pos:1,rep:3x,ant:
%%etbk:pldat 2016-02-04T18:38,2016-02-03T15:43,2016-02-02T16:12,2016-02-01T18:12,2016-01-30T14:03,2016-01-28T18:47,2016-01-27T16:16,2016-01-26T15:53,2016-01-25T18:48,2016-01-23T15:14,2016-01-21T18:42,2016-01-20T15:53,2016-01-19T17:06,2016-01-17T11:57,2016-01-16T17:32
T: The Queue Test
Z: Piano Box Version by Martin Fleischmann
H: Created 2016-01-19 /  Last Modified 2016-01-20
R: song
C: David Gilsenan
M: 3/4
L: 1/4
K: Amaj
"A" C2E|ECA,|"D"DEF|"A" E3|C2E|Ezz/E/|CB,A,|"E"B,3|
"A" C2E|ECA,|"D"AGF|"A" E3|CEE|ECz/A,/|"E"CCB,|"A"A,3|
A|"D"AAA|ADD|"E"DEF|"A" E2E|C/E/zE|E/C/zz/ A,/|CB,A,|"E"B,3|
"A" C2E|ECA,|"D"DEF|"A" E3|CEE|ECz/A,/|"E"CCB,|"A"A,3|


